project/img/rouble.svg

<svg width="9" height="11" viewBox="0 0 9 11" fill="none" xmlns="http://www.w3.org/2000/svg">
<path d="M5.60156 7H3.44531V7.75H7.21875C7.40625 7.75 7.5 7.84375 7.5 8.03125V8.96875C7.5 9.15625 7.40625 9.25 7.21875 9.25H3.44531V10.4688C3.44531 10.5469 3.41406 10.6094 3.35156 10.6562C3.30469 10.7188 3.24219 10.75 3.16406 10.75H1.78125C1.59375 10.75 1.5 10.6562 1.5 10.4688V9.25H0.28125C0.09375 9.25 0 9.15625 0 8.96875V8.03125C0 7.84375 0.09375 7.75 0.28125 7.75H1.5V7H0.28125C0.09375 7 0 6.90625 0 6.71875V5.66406C0 5.58594 0.0234375 5.52344 0.0703125 5.47656C0.132812 5.41406 0.203125 5.38281 0.28125 5.38281H1.5V0.53125C1.5 0.34375 1.59375 0.25 1.78125 0.25H5.60156C6.60156 0.25 7.41406 0.5625 8.03906 1.1875C8.67969 1.79688 9 2.60156 9 3.60156C9 4.60156 8.67969 5.42188 8.03906 6.0625C7.41406 6.6875 6.60156 7 5.60156 7ZM3.44531 1.86719V5.38281H5.25C5.8125 5.38281 6.25 5.22656 6.5625 4.91406C6.875 4.58594 7.03125 4.14844 7.03125 3.60156C7.03125 3.07031 6.875 2.64844 6.5625 2.33594C6.25 2.02344 5.82031 1.86719 5.27344 1.86719H3.44531Z" fill="#787878"/>
</svg>

<svg width="9" height="11" fill="none" xmlns="http://www.w3.org/2000/svg"><path d="M5.602 7H3.445v.75H7.22c.187 0 .281.094.281.281v.938c0 .187-.094.281-.281.281H3.445v1.219a.22.22 0 01-.093.187.223.223 0 01-.188.094H1.781c-.187 0-.281-.094-.281-.281V9.25H.281C.094 9.25 0 9.156 0 8.969V8.03c0-.187.094-.281.281-.281H1.5V7H.281C.094 7 0 6.906 0 6.719V5.664c0-.078.023-.14.07-.187a.291.291 0 01.211-.094H1.5V.53c0-.187.094-.281.281-.281h3.82c1 0 1.813.313 2.438.938.64.609.961 1.414.961 2.414 0 1-.32 1.82-.96 2.46C7.413 6.688 6.601 7 5.601 7zM3.445 1.867v3.516H5.25c.563 0 1-.156 1.313-.469.312-.328.468-.766.468-1.312 0-.532-.156-.954-.468-1.266-.313-.313-.743-.469-1.29-.469H3.445z" fill="#787878"/></svg>
